X: 671
T: Five Miles Away   #2
R: reel
%S: s:2 b:11(5+6)
B: Francis O'Neill: "The Dance Music of Ireland" (1907) #671
Z: Frank Nordberg - http://www.musicaviva.com
F: http://www.musicaviva.com/abc/tunes/ireland/oneill-1001/0671/oneill-1001-0671-1.abc
M: C|
L: 1/8
K: D
"^A"\
[| d2({e}dB) ABAF | d2(AF) Agfe | dedF ABAF |\
[1 GFEF GABc :|[2 GBAG (FD)D ||
"^B"\
[| g | fdAd fdad | fdAd ceeg |\
[1 fdAd fdad | bage fdd :|\
[2 (3(fga) (ge) fdec | cABG (FD)Dz |]
